src/render/svg/decode.svg

<svg class="icon" viewBox="0 0 1024 1024" version="1.1" xmlns="http://www.w3.org/2000/svg"
     width="1024" height="1024" xmlns:xlink="http://www.w3.org/1999/xlink">
    <path d="M1006.933333 238.933333h-273.066666-3.413334-3.413333c-3.413333 0-6.826667 3.413333-6.826667 3.413334l-273.066666 273.066666c-3.413333 3.413333-3.413333 3.413333-3.413334 6.826667v484.693333c0 10.24 6.826667 17.066667 17.066667 17.066667h546.133333c10.24 0 17.066667-6.826667 17.066667-17.066667v-750.933333c0-10.24-6.826667-17.066667-17.066667-17.066667zM716.8 296.96V512h-215.04L716.8 296.96zM341.333333 761.173333c0-3.413333-3.413333-3.413333-3.413333-6.826666l-68.266667-68.266667c-6.826667-6.826667-17.066667-6.826667-23.893333 0s-6.826667 17.066667 0 23.893333L283.306667 750.933333H136.533333c-37.546667 0-68.266667-30.72-68.266666-68.266666v-153.6c0-10.24-6.826667-17.066667-17.066667-17.066667s-17.066667 6.826667-17.066667 17.066667V682.666667c0 58.026667 44.373333 102.4 102.4 102.4h146.773334l-37.546667 37.546666c-6.826667 6.826667-6.826667 17.066667 0 23.893334 0 6.826667 6.826667 6.826667 10.24 6.826666s10.24 0 13.653333-3.413333l68.266667-68.266667c3.413333-3.413333 3.413333-3.413333 3.413333-6.826666v-3.413334-10.24zM443.733333 17.066667c0-10.24-6.826667-17.066667-17.066666-17.066667s-17.066667 6.826667-17.066667 17.066667v409.6c0 10.24 6.826667 17.066667 17.066667 17.066666s17.066667-6.826667 17.066666-17.066666V17.066667zM358.4 0c-10.24 0-17.066667 6.826667-17.066667 17.066667v341.333333c0 10.24 6.826667 17.066667 17.066667 17.066667s17.066667-6.826667 17.066667-17.066667V17.066667c0-10.24-6.826667-17.066667-17.066667-17.066667zM290.133333 375.466667c10.24 0 17.066667-6.826667 17.066667-17.066667V17.066667c0-10.24-6.826667-17.066667-17.066667-17.066667S273.066667 6.826667 273.066667 17.066667v341.333333c0 10.24 6.826667 17.066667 17.066666 17.066667zM221.866667 443.733333c10.24 0 17.066667-6.826667 17.066666-17.066666V17.066667c0-10.24-6.826667-17.066667-17.066666-17.066667S204.8 6.826667 204.8 17.066667v409.6c0 10.24 6.826667 17.066667 17.066667 17.066666zM34.133333 17.066667C34.133333 6.826667 27.306667 0 17.066667 0S0 6.826667 0 17.066667v409.6c0 10.24 6.826667 17.066667 17.066667 17.066666s17.066667-6.826667 17.066666-17.066666V17.066667zM153.6 375.466667c10.24 0 17.066667-6.826667 17.066667-17.066667V17.066667c0-10.24-6.826667-17.066667-17.066667-17.066667S136.533333 6.826667 136.533333 17.066667v341.333333c0 10.24 6.826667 17.066667 17.066667 17.066667zM85.333333 375.466667c10.24 0 17.066667-6.826667 17.066667-17.066667V17.066667c0-10.24-6.826667-17.066667-17.066667-17.066667S68.266667 6.826667 68.266667 17.066667v341.333333c0 10.24 6.826667 17.066667 17.066666 17.066667z"></path><path d="M290.133333 426.666667m-17.066666 0a17.066667 17.066667 0 1 0 34.133333 0 17.066667 17.066667 0 1 0-34.133333 0Z"></path><path d="M358.4 426.666667m-17.066667 0a17.066667 17.066667 0 1 0 34.133334 0 17.066667 17.066667 0 1 0-34.133334 0Z"></path><path d="M85.333333 426.666667m-17.066666 0a17.066667 17.066667 0 1 0 34.133333 0 17.066667 17.066667 0 1 0-34.133333 0Z"></path><path d="M153.6 426.666667m-17.066667 0a17.066667 17.066667 0 1 0 34.133334 0 17.066667 17.066667 0 1 0-34.133334 0Z"></path>
</svg>

<svg xmlns="http://www.w3.org/2000/svg" width="1024" height="1024" class="icon" viewBox="0 0 1024 1024">
    <path d="M1006.93333 238.93333H727.04c-3.41333 0-6.82667 3.41334-6.82667 3.41334L447.14667 515.41333c-3.41334 3.41334-3.41334 3.41334-3.41334 6.82667v484.69333c0 10.24 6.82667 17.06667 17.06667 17.06667h546.13333c10.24 0 17.06667-6.82667 17.06667-17.06667V256c0-10.24-6.82667-17.06667-17.06667-17.06667M716.8 296.96V512H501.76zM341.33333 761.17333c0-3.41333-3.41333-3.41333-3.41333-6.82666L269.65333 686.08c-6.82666-6.82667-17.06666-6.82667-23.89333 0s-6.82667 17.06667 0 23.89333l37.54667 40.96H136.53333c-37.54666 0-68.26666-30.72-68.26666-68.26666v-153.6C68.26667 518.82667 61.44 512 51.2 512s-17.06667 6.82667-17.06667 17.06667v153.6c0 58.02666 44.37334 102.4 102.4 102.4h146.77334L245.76 822.61333c-6.82667 6.82667-6.82667 17.06667 0 23.89334 0 6.82666 6.82667 6.82666 10.24 6.82666s10.24 0 13.65333-3.41333L337.92 781.65333c3.41333-3.41333 3.41333-3.41333 3.41333-6.82666v-13.65334m102.4-744.10666C443.73333 6.82667 436.90667 0 426.66667 0S409.6 6.82667 409.6 17.06667v409.6c0 10.24 6.82667 17.06666 17.06667 17.06666s17.06666-6.82666 17.06666-17.06666zM358.4 0c-10.24 0-17.06667 6.82667-17.06667 17.06667V358.4c0 10.24 6.82667 17.06667 17.06667 17.06667S375.46667 368.64 375.46667 358.4V17.06667C375.46667 6.82667 368.64 0 358.4 0m-68.26667 375.46667c10.24 0 17.06667-6.82667 17.06667-17.06667V17.06667C307.2 6.82667 300.37333 0 290.13333 0s-17.06666 6.82667-17.06666 17.06667V358.4c0 10.24 6.82666 17.06667 17.06666 17.06667m-68.26666 68.26666c10.24 0 17.06666-6.82666 17.06666-17.06666v-409.6C238.93333 6.82667 232.10667 0 221.86667 0S204.8 6.82667 204.8 17.06667v409.6c0 10.24 6.82667 17.06666 17.06667 17.06666M34.13333 17.06667C34.13333 6.82667 27.30667 0 17.06667 0S0 6.82667 0 17.06667v409.6c0 10.24 6.82667 17.06666 17.06667 17.06666s17.06666-6.82666 17.06666-17.06666zm119.46667 358.4c10.24 0 17.06667-6.82667 17.06667-17.06667V17.06667C170.66667 6.82667 163.84 0 153.6 0s-17.06667 6.82667-17.06667 17.06667V358.4c0 10.24 6.82667 17.06667 17.06667 17.06667m-68.26667 0c10.24 0 17.06667-6.82667 17.06667-17.06667V17.06667C102.4 6.82667 95.57333 0 85.33333 0S68.26667 6.82667 68.26667 17.06667V358.4c0 10.24 6.82666 17.06667 17.06666 17.06667M273.06667 426.66667a17.06667 17.06667 0 1 0 34.13333 0 17.06667 17.06667 0 1 0-34.13333 0M341.33333 426.66667a17.06667 17.06667 0 1 0 34.13334 0 17.06667 17.06667 0 1 0-34.13334 0M68.26667 426.66667a17.06667 17.06667 0 1 0 34.13333 0 17.06667 17.06667 0 1 0-34.13333 0M136.53333 426.66667a17.06667 17.06667 0 1 0 34.13334 0 17.06667 17.06667 0 1 0-34.13334 0"/>
</svg>
